X:176
%%pagewidth 9.5in
%%vocalfont Baskerville10Pro 15
T:Thomas, You cannot.
M:6/8
L:1/8
K:D
%%score 1 2
V:1 clef-treble
V:2 clef-bass octave=-1
[V:1]D|FGA B2A & D6|d2c B2A & D6|FGF [CE]2D & D3 x3|
w:My scand-a-lous neighbours of Portu-gal Street, Come list-en a-while~to my
w:I'll sing you a song though~my voice be~not sweet, And that you will say~is a
[V:2]z|DEF G2F|B2A G2F|A3 [A,G]3|
[V:1]D (d2d2) :||d|c2d edc &E6-|dec B2A & E3 ^G2A|c2d e2F & E3-E2D|
w:dit-ty;* As merry a son-net as times can af-ford, Of Egling-ton, Walker, Jack
w:pi-ty.*|||||
[V:2][DF]3-[DF]2 :||z|A2B cBA|^G2A E2A,|A,2B, C2D|
[V:1]=GAF E2[Fd] & C2D C2x|[GB]2[Ad] [Be][Ad][Gc]|[FB]c[EA] [Fd]2[DA]|
w:Hall and my Lord; If~you doubt~what I say, to con-firm ev'-ry word, I'll
[V:2]E2D A2D|E2F GFE|D2C B,2F,|
[V:1][DF]GF [CE]2D|BdA BdA & D3 D2x|[DF]GF [CE]2D|D(d2d2)||
w:call as a witness Will Thom-as, Will Thom-as, I'll call as a witness Will Thom-as.*
[V:2]A,3 [A,G]2[B,F]|[G,G]2[DF] [G,G]2[DF]|[A,A]3[A,A]3|[DF]3-[DF]2||

